X:87
T:Farewell to London
R:Reel
C:Brendan McGlinchey
S:IrTrad
Z:Transcription:N. Ishii, chords:Mike Long
M:C|
L:1/8
K:G
D2|\
"G"GB~B2 "C"c2BA|"G"GABd edBG|"D"AD~D2 A3c|"G"BcdB "D"cBAF|\
"G"GABG "D"FGAF|"G"GABG "C"ABcA|
"G"dg~g2 "C"fgag|"D"fdcA "G"G2:|\
|:Bc|\
"G"dg~g2 "D"fgaf|"G"gdBG DG,B,G,|"C"CGEC "G"B,DGE|
"D"FGAB cABc|\
"G"dg~g2 "D"fgaf|"G"gdBG DG,B,D|"C"CGEC "G"B,DGB|"D"cAFD "G"G2:|
|:Bc|\
"G"dgfg "C"ec~c2|"D"fdfa "G"gd~d2|"G"bagf gdBG|"D"AD (3(FED) ABcA|\
"G"dgfg "C"ec~c2|"D"fdfa "G"gd~d2|
"G"(3(Bcd) gd "C"ceag|[1 "D"fdcA "G"G2:|[2 "D"fdcA "G"G4\
|:"G"~d2ba "(D)"gafd|"G"gdBG DG,B,G,|"C"CGEC "G"B,DGE|
"D"FGAB cABc|\
"G"~d2ba "(D)"gafd|"G"gdBG DG,B,G,|"C"CGEC "G"B,DGB|"D"cAFD "G"G4:|
